imagens/produto-suprimento.svg

<svg xmlns="http://www.w3.org/2000/svg" xmlns:xlink="http://www.w3.org/1999/xlink" width="500" zoomAndPan="magnify" viewBox="0 0 375 374.999991" height="500" preserveAspectRatio="xMidYMid meet" version="1.0"><defs><clipPath id="cf50859f9d"><path d="M 16 0.570312 L 359 0.570312 L 359 374.820312 L 16 374.820312 Z M 16 0.570312 " clip-rule="nonzero"/></clipPath></defs><g clip-path="url(#cf50859f9d)"><path fill="#f9943b" d="M 288.386719 126.609375 L 189.695312 69.625 C 188.203125 68.761719 186.351562 68.761719 184.863281 69.625 L 86.171875 126.609375 C 84.675781 127.46875 83.753906 129.070312 83.753906 130.796875 L 83.753906 244.765625 C 83.753906 246.492188 84.675781 248.09375 86.171875 248.953125 L 184.863281 305.9375 C 185.609375 306.375 186.441406 306.585938 187.28125 306.585938 C 188.121094 306.585938 188.953125 306.367188 189.699219 305.9375 L 288.390625 248.953125 C 289.886719 248.09375 290.808594 246.496094 290.808594 244.765625 L 290.808594 130.796875 C 290.808594 129.074219 289.886719 127.46875 288.390625 126.609375 Z M 187.28125 182.199219 L 155.484375 163.839844 L 245.492188 113.003906 L 276.304688 130.796875 L 187.285156 182.199219 Z M 132.617188 161.800781 L 140.824219 166.542969 L 140.011719 197.890625 L 131.820312 193.15625 L 132.617188 161.796875 Z M 138.226562 153.878906 L 227.742188 102.761719 L 235.757812 107.390625 L 145.753906 158.222656 L 138.226562 153.875 Z M 187.277344 79.398438 L 218.042969 97.164062 L 128.53125 148.28125 L 98.261719 130.800781 L 187.28125 79.398438 Z M 93.425781 139.175781 L 123.082031 156.300781 L 122.078125 195.789062 C 122.035156 197.554688 122.960938 199.210938 124.492188 200.097656 L 142.214844 210.339844 C 142.96875 210.773438 143.800781 210.984375 144.640625 210.984375 C 145.457031 210.984375 146.269531 210.78125 147.003906 210.371094 C 148.492188 209.535156 149.429688 207.980469 149.472656 206.277344 L 150.359375 172.042969 L 182.445312 190.570312 L 182.445312 293.378906 L 93.429688 241.972656 L 93.429688 139.167969 Z M 192.117188 293.382812 L 192.117188 190.574219 L 281.128906 139.175781 L 281.128906 241.984375 L 192.117188 293.386719 Z M 344.964844 253.984375 C 362.457031 212.234375 362.457031 163.339844 344.964844 121.589844 C 349.457031 117.539062 352.335938 111.746094 352.335938 105.238281 C 352.335938 93.054688 342.425781 83.144531 330.242188 83.144531 C 327.84375 83.144531 325.570312 83.625 323.40625 84.335938 C 295.613281 47.796875 254.273438 23.902344 208.910156 18.164062 C 206.808594 8.148438 197.917969 0.59375 187.28125 0.59375 C 176.644531 0.59375 167.75 8.144531 165.652344 18.164062 C 120.289062 23.90625 78.945312 47.796875 51.148438 84.335938 C 48.988281 83.625 46.714844 83.144531 44.316406 83.144531 C 32.132812 83.144531 22.222656 93.054688 22.222656 105.238281 C 22.222656 111.746094 25.101562 117.539062 29.59375 121.589844 C 12.101562 163.339844 12.101562 212.234375 29.59375 253.984375 C 25.101562 258.03125 22.222656 263.828125 22.222656 270.332031 C 22.222656 282.519531 32.132812 292.429688 44.316406 292.429688 C 46.714844 292.429688 48.988281 291.949219 51.148438 291.234375 C 78.949219 327.777344 120.289062 351.671875 165.652344 357.410156 C 167.75 367.429688 176.648438 374.976562 187.277344 374.976562 C 197.90625 374.976562 206.800781 367.429688 208.898438 357.410156 C 254.265625 351.667969 295.609375 327.777344 323.402344 291.234375 C 325.566406 291.949219 327.835938 292.429688 330.230469 292.429688 C 342.414062 292.429688 352.328125 282.519531 352.328125 270.332031 C 352.328125 263.828125 349.449219 258.03125 344.957031 253.984375 Z M 342.664062 105.238281 C 342.664062 112.085938 337.089844 117.65625 330.242188 117.65625 C 323.390625 117.65625 317.847656 112.085938 317.847656 105.238281 C 317.847656 98.394531 323.402344 92.816406 330.242188 92.816406 C 337.078125 92.816406 342.664062 98.390625 342.664062 105.238281 Z M 187.28125 10.265625 C 194.136719 10.265625 199.707031 15.835938 199.707031 22.6875 C 199.707031 29.539062 194.136719 35.109375 187.28125 35.109375 C 180.425781 35.109375 174.855469 29.539062 174.855469 22.6875 C 174.855469 15.835938 180.425781 10.265625 187.28125 10.265625 Z M 44.320312 92.8125 C 51.15625 92.8125 56.714844 98.382812 56.714844 105.234375 C 56.714844 112.085938 51.160156 117.652344 44.320312 117.652344 C 37.484375 117.652344 31.898438 112.082031 31.898438 105.234375 C 31.898438 98.390625 37.472656 92.8125 44.320312 92.8125 Z M 31.898438 270.328125 C 31.898438 263.484375 37.472656 257.910156 44.320312 257.910156 C 51.171875 257.910156 56.714844 263.484375 56.714844 270.328125 C 56.714844 277.175781 51.160156 282.753906 44.320312 282.753906 C 37.484375 282.753906 31.898438 277.179688 31.898438 270.328125 Z M 187.28125 365.300781 C 180.425781 365.300781 174.855469 359.726562 174.855469 352.875 C 174.855469 346.027344 180.425781 340.453125 187.28125 340.453125 C 194.136719 340.453125 199.707031 346.027344 199.707031 352.875 C 199.707031 359.726562 194.136719 365.300781 187.28125 365.300781 Z M 208.699219 347.683594 C 206.351562 338.007812 197.671875 330.777344 187.28125 330.777344 C 176.890625 330.777344 168.210938 338.007812 165.863281 347.683594 C 123.832031 342.089844 85.539062 319.972656 59.527344 286.261719 C 63.734375 282.234375 66.382812 276.597656 66.382812 270.324219 C 66.382812 258.140625 56.488281 248.234375 44.320312 248.234375 C 42.144531 248.234375 40.085938 248.644531 38.097656 249.238281 C 22.144531 210.402344 22.144531 165.15625 38.097656 126.324219 C 40.085938 126.910156 42.144531 127.328125 44.320312 127.328125 C 56.488281 127.328125 66.382812 117.417969 66.382812 105.234375 C 66.382812 98.960938 63.734375 93.324219 59.527344 89.296875 C 85.542969 55.589844 123.832031 33.472656 165.867188 27.882812 C 168.222656 37.554688 176.894531 44.785156 187.285156 44.785156 C 197.675781 44.785156 206.351562 37.554688 208.703125 27.882812 C 250.734375 33.472656 289.027344 55.589844 315.042969 89.296875 C 310.835938 93.324219 308.1875 98.960938 308.1875 105.234375 C 308.1875 117.417969 318.082031 127.328125 330.25 127.328125 C 332.425781 127.328125 334.484375 126.914062 336.472656 126.324219 C 352.429688 165.15625 352.429688 210.402344 336.472656 249.238281 C 334.484375 248.648438 332.425781 248.234375 330.25 248.234375 C 318.082031 248.234375 308.1875 258.140625 308.1875 270.324219 C 308.1875 276.597656 310.835938 282.234375 315.046875 286.261719 C 289.03125 319.972656 250.742188 342.085938 208.707031 347.683594 Z M 330.242188 282.753906 C 323.40625 282.753906 317.847656 277.179688 317.847656 270.328125 C 317.847656 263.480469 323.402344 257.910156 330.242188 257.910156 C 337.078125 257.910156 342.664062 263.484375 342.664062 270.328125 C 342.664062 277.175781 337.089844 282.753906 330.242188 282.753906 Z M 330.242188 282.753906 " fill-opacity="1" fill-rule="nonzero"/></g></svg>

<svg xmlns="http://www.w3.org/2000/svg" width="500" height="500" version="1.0" viewBox="0 0 375 375"><defs><clipPath id="a"><path d="M16 .57h343v374.25H16Zm0 0"/></clipPath></defs><g clip-path="url(#a)"><path fill="#f9943b" d="m288.387 126.61-98.692-56.985a4.831 4.831 0 0 0-4.832 0l-98.691 56.984a4.831 4.831 0 0 0-2.418 4.188v113.969c0 1.726.922 3.328 2.418 4.187l98.691 56.984a4.837 4.837 0 0 0 4.836 0l98.692-56.984a4.827 4.827 0 0 0 2.418-4.187v-113.97a4.836 4.836 0 0 0-2.418-4.187ZM187.28 182.2l-31.797-18.36 90.008-50.836 30.813 17.793-89.02 51.402Zm-54.664-20.4 8.207 4.743-.812 31.348-8.192-4.735.797-31.36Zm5.61-7.921 89.515-51.117 8.016 4.629-90.004 50.832-7.527-4.348Zm49.05-74.48 30.766 17.765-89.512 51.117-30.27-17.48 89.02-51.403Zm-93.851 59.777 29.656 17.125-1.004 39.488a4.848 4.848 0 0 0 2.414 4.309l17.723 10.242a4.843 4.843 0 0 0 2.426.644c.816 0 1.629-.203 2.363-.613a4.836 4.836 0 0 0 2.469-4.094l.886-34.234 32.086 18.527V293.38L93.43 241.973V139.168Zm98.691 154.207V190.574l89.012-51.398v102.808l-89.012 51.403Zm152.848-39.399c17.492-41.75 17.492-90.644 0-132.394 4.492-4.05 7.37-9.844 7.37-16.352 0-12.183-9.91-22.093-22.093-22.093-2.398 0-4.672.48-6.836 1.19-27.793-36.538-69.133-60.433-114.496-66.17C206.81 8.147 197.918.593 187.281.593c-10.636 0-19.531 7.55-21.629 17.57-45.363 5.742-86.707 29.633-114.504 66.172-2.16-.711-4.433-1.191-6.832-1.191-12.183 0-22.093 9.91-22.093 22.093 0 6.508 2.879 12.301 7.37 16.352-17.491 41.75-17.491 90.644 0 132.394-4.491 4.047-7.37 9.844-7.37 16.348 0 12.188 9.91 22.098 22.093 22.098 2.399 0 4.672-.48 6.832-1.196 27.801 36.543 69.141 60.438 114.504 66.176 2.098 10.02 10.996 17.567 21.625 17.567 10.63 0 19.524-7.547 21.621-17.567 45.368-5.742 86.711-29.633 114.504-66.176 2.164.715 4.434 1.196 6.828 1.196 12.184 0 22.098-9.91 22.098-22.098 0-6.504-2.879-12.3-7.371-16.348Zm-2.3-148.746c0 6.848-5.575 12.418-12.423 12.418-6.851 0-12.394-5.57-12.394-12.418 0-6.843 5.554-12.422 12.394-12.422 6.836 0 12.422 5.575 12.422 12.422ZM187.28 10.266c6.856 0 12.426 5.57 12.426 12.421 0 6.852-5.57 12.422-12.426 12.422-6.855 0-12.426-5.57-12.426-12.422 0-6.851 5.57-12.421 12.426-12.421ZM44.321 92.812c6.835 0 12.394 5.57 12.394 12.422s-5.555 12.418-12.395 12.418c-6.836 0-12.422-5.57-12.422-12.418 0-6.843 5.575-12.421 12.422-12.421ZM31.897 270.328c0-6.844 5.575-12.418 12.422-12.418 6.852 0 12.395 5.574 12.395 12.418 0 6.848-5.555 12.426-12.395 12.426-6.836 0-12.422-5.574-12.422-12.426Zm155.383 94.973c-6.855 0-12.426-5.574-12.426-12.426 0-6.848 5.57-12.422 12.426-12.422s12.426 5.574 12.426 12.422c0 6.852-5.57 12.426-12.426 12.426Zm21.418-17.617c-2.347-9.676-11.027-16.907-21.418-16.907-10.39 0-19.07 7.23-21.418 16.907-42.031-5.594-80.324-27.711-106.336-61.422 4.207-4.028 6.856-9.664 6.856-15.938 0-12.183-9.895-22.09-22.063-22.09-2.175 0-4.234.41-6.222 1.004-15.953-38.836-15.953-84.082 0-122.914 1.988.586 4.047 1.004 6.222 1.004 12.168 0 22.063-9.91 22.063-22.094 0-6.273-2.649-11.91-6.856-15.937 26.016-33.707 64.305-55.824 106.34-61.414 2.356 9.672 11.028 16.902 21.418 16.902 10.39 0 19.067-7.23 21.418-16.902 42.031 5.59 80.324 27.707 106.34 61.414-4.207 4.027-6.856 9.664-6.856 15.937 0 12.184 9.895 22.094 22.063 22.094 2.176 0 4.234-.414 6.223-1.004 15.957 38.832 15.957 84.078 0 122.914-1.989-.59-4.047-1.004-6.223-1.004-12.168 0-22.063 9.907-22.063 22.09 0 6.274 2.649 11.91 6.86 15.938-26.016 33.71-64.305 55.824-106.34 61.422Zm121.543-64.93c-6.836 0-12.394-5.574-12.394-12.426 0-6.848 5.554-12.418 12.394-12.418 6.836 0 12.422 5.574 12.422 12.418 0 6.848-5.574 12.426-12.422 12.426Zm0 0"/></g></svg>
